polaris-icons/icons/new-icons/AnalyticsDonutMinor.svg

<svg width="20" height="20" viewBox="0 0 20 20" fill="none" xmlns="http://www.w3.org/2000/svg">
<path fill-rule="evenodd" clip-rule="evenodd" d="M17.9376 9.00252C18.0064 9.5505 17.5523 9.99993 17 9.99993C17 13.8659 13.866 16.9999 10 16.9999C6.13401 16.9999 3 13.8659 3 9.99994C3 6.13395 6.13401 2.99994 10 2.99994V4.49994C6.96243 4.49994 4.5 6.96237 4.5 9.99994C4.5 13.0375 6.96243 15.4999 10 15.4999C13.0376 15.4999 15.5 13.0375 15.5 9.99994L13 9.99993C13 9.99993 13 9.99992 13 9.99993C13 11.6568 11.6569 12.9999 10 12.9999C8.34315 12.9999 7 11.6568 7 9.99994C7 8.34308 8.34315 6.99994 10 6.99994L10 2.99994C10 2.44765 10.4494 1.99349 10.9974 2.06235C11.7053 2.15129 12.3996 2.33472 13.0615 2.60889C14.0321 3.01093 14.914 3.6002 15.6569 4.34307C16.3997 5.08594 16.989 5.96785 17.391 6.93846C17.6652 7.60035 17.8486 8.29465 17.9376 9.00252ZM16.3246 8.49993C16.2448 8.16357 16.1381 7.83334 16.0052 7.51248C15.6786 6.72387 15.1998 6.00731 14.5962 5.40373C13.9926 4.80015 13.2761 4.32136 12.4874 3.99471C12.1666 3.86181 11.8364 3.75514 11.5 3.67537V7.28699C11.7534 7.42711 11.9865 7.60233 12.192 7.8079C12.3976 8.01346 12.5728 8.24651 12.7129 8.49993H16.3246ZM10 11.4999C9.17157 11.4999 8.5 10.8284 8.5 9.99994C8.5 9.17151 9.17157 8.49994 10 8.49994C10.8284 8.49994 11.5 9.17151 11.5 9.99994C11.5 10.8284 10.8284 11.4999 10 11.4999Z" fill="#4A4A4A"/>
</svg>

<svg viewBox="0 0 20 20" xmlns="http://www.w3.org/2000/svg"><path fill-rule="evenodd" d="M17.938 9.003c.068.547-.386.997-.938.997a7 7 0 1 1-7-7v1.5a5.5 5.5 0 1 0 5.5 5.5h-2.5a3 3 0 1 1-3-3v-4c0-.552.45-1.007.997-.938a8 8 0 0 1 6.94 6.94Zm-1.613-.503a6.503 6.503 0 0 0-4.825-4.825v3.612a3.099 3.099 0 0 1 1.213 1.213h3.612Zm-6.325 3a1.5 1.5 0 1 1 0-3 1.5 1.5 0 0 1 0 3Z" fill="#5C5F62"/></svg>
